X:1
T:Title
%%score { ( 1 3 ) | 2 }
L:1/8
M:12/8
K:F
V:1 treble nm="Grand Piano"
V:3 treble 
V:2 bass 
V:1
 z6 z3[Q:1/4=129] F2 G | A3 A3 B2 A G2 F | [Ec]3 [Fc]3 [Ec]3 z3 | c3 F2 G A3 [GB]2 [FA] | %4
 [EG]6- [EG]3 F2 G | A3 A3 B2 A G2 F | [Ec]3 [Fc]3 [Ec]3 z3 | %7
 [Fc]3 [CF]2 [DFG] [CFA]3 [B,EG]2 [B,EG] | F6- F3 z3 | c6- c3 z3 | d6- d3 z3 | B6- B3 z3 | %12
 c6- c3 z3 | c3 F2 G A3 [GB]2 [FA] | [EG]6- [EG]3 z3 | c6- c3 z3 | d6- d3 z3 | B6- B3 z3 | %18
 c6- c3 z3 | c3 [CF]2 [DFG] [CFA]3 [B,EG]2 [B,EG] |[M:9/8] [A,F]8- [A,F] |] %21
V:2
 z6 z3 [F,A,C]2 [F,B,C] | [F,CF]3 [F,CF]3 [F,DF]2 [F,CF] [F,B,E]2 [F,A,] | %2
 [C,G,]3 [F,A,]3 [C,G,]3 z3 | [F,A,F]3 [F,A,C]2 [F,B,C] [F,CF]3 [E,C]2 [F,C] | %4
 [C,C]6- [C,C]3 [F,A,C]2 [F,B,C] | [F,CF]3 [F,CF]3 [F,DF]2 [F,CF] [F,B,E]2 [F,A,] | %6
 [C,G,]3 [F,A,]3 [C,G,]3 z3 | [F,A,]3 A,,2 B,, C,3 C,2 C, | [F,A,]6- [F,A,]3 z3 | %9
 [F,A,F]3 [C,G,][C,A,][C,B,] [F,A,]3 z3 | [B,,B,]3 [B,,B,][B,,B,][B,,B,] [B,,B,]3 z3 | %11
 [C,G,]3 [E,C][E,C][D,C] [C,C]3 z3 | [F,A,F]3 [A,C][A,C][G,B,] [F,A,]3 z3 | %13
 [F,A,F]3 [F,A,C]2 [F,B,C] [F,CF]3 [E,C]2 [F,C] | [C,C]6- [C,C]3 z3 | %15
 [F,A,F]3 [C,G,][C,A,][C,B,] [F,A,]3 z3 | [B,,B,]3 [B,,B,][B,,B,][B,,B,] [B,,B,]3 z3 | %17
 [C,G,]3 [E,C][E,C][D,C] [C,C]3 z3 | [F,A,F]3 [A,C][A,C][G,B,] [F,A,]3 z3 | %19
 [F,A,F]3 A,,2 B,, C,3 C,2 C, |[M:9/8] F,8- F, |] %21
V:3
 x12 | x12 | x12 | x12 | x12 | x12 | x12 | x12 | x12 | z3 EFG F3 ABc | F3 FFF F3 z3 | %11
 E3 GGF E3 GAB | z3 FFE F3 z3 | x12 | x12 | z3 EFG F3 ABc | F3 FFF F3 z3 | E3 GGF E3 GAB | %18
 z3 FFE F3 z3 | x12 |[M:9/8] x9 |] %21

